X: 1
T:4/4 3/4
M:4/4
O:Denmark
Z:Transcribed from a recording by Andy Hornby
B:Rasmus Storm's Notebook
K:D
A2Ad c2d2|A2Ad c2d2|D2DE FEFG|A2A2A4:: \
a2gf efga|f2ed c2A2|dcde fefg          \
|1 a2a2 a4:|2 g2c2 d4 ||               \
K:DMix
M:3/4
|:Ad c2 d2|Ad c2 d2|DD/E/ FE FG|A2 A4::
ag/f/ ef ga|(3fed c2 A2                 \
|1 dc de fg|a2 a4:|2 de fg ac|d2 d4:|
